X: 20125
T: Jimmy's Frustration
R: reel
M: 4/4
K: Edorian
|:GEFD EDB,A,|B,EEB, EFGE|FBBF Bcdd|B/c/d Bc BAGF|
GEFD EEDE|EEGD EFGE|FBBB BAGF|1 GEFD EFDF:|2 GEFD EEEB||
|:eeee edBA|BAGE FBBB|Beee edBA|GB B/A/G FADB|
eeee edBA|BAGE FBBB|FBBB GBFB|BAGF GEEE:|

